X: 1
T: Dappled Waters
C: Paul Anderson 2009-7-17
%date: 2009
R: air
S: printed page in Concord Slow Scottish Session collection
Z: 2015 John Chambers <jc:trillian.mit.edu>
N: For Alex Bowers and Charles Liu's wedding.
N: Named for the ripples on Round Pond at Pinewoods Camp, as viewed from Boatman cottage.
M: 6/8
L: 1/8
%Q: "Slow Air"
K: D
B |\
A2F F>ED | B2d d2B | A2F F>ED | B,3 B,2C |
D>EF B2A | F>EF d2B | A2D B>AF | E3 E2 :|
|: D |\
d>ef a2d'| b2a a2e | d>ef d'2c' | b3 b2d' |
d'2b a2b | f>ef b2a |[1 a2b a2f | e3 e2d :|\
[2 a>gf e2d | d3 d2 |]
